X:5926
T:Seanbhean Bhocht
O:england
M:C|
L:1/8
K:A Dorian
ed|cABG AcBA|GEDE GABd|(3efg fa gedc|B2G2 G2ed|
cABG AcBA|GEDE GABd|(3efg fa gedB|B2A2 A2:|
(3efg|a^gab a=gef|gedB G2ef|gfga gfef|gedB GBAG|
E2A2 AcBA|GEDE GABd|(3efg fa gedB|B2A2 A2:|


